client/src/assets/icons/deno.svg

<svg xmlns="http://www.w3.org/2000/svg" aria-hidden="true" class="icon" viewBox="0 0 401 401"><path fill="currentColor" d="M261.684 245.149c33.861 1.662 69.225-13.535 80.203-43.776s6.721-60.148-32.661-78.086c-39.381-17.944-57.569-39.272-89.385-52.14-20.787-8.408-43.915-3.418-67.664 9.707-63.963 35.351-121.274 147.038-94.858 250.518a3.185 3.185 0 0 1-1.544 3.615 3.19 3.19 0 0 1-3.877-.64C16.282 295.06-3.759 241.788.593 184.791 8.998 74.728 105.178-7.806 215.241.599 325.296 9.003 407.83 105.182 399.425 215.245c-3.529 46.221-22.535 87.584-51.559 119.399-22.195 22.8-50.473 32.935-74.07 32.516-17.107-.303-33.839-7.112-45.409-17.066-16.516-14.228-23.191-30.485-25.474-48.635-.572-4.507-.236-16.797 2.112-25.309 1.745-6.343 6.185-18.599 12.676-23.957-7.595-3.266-17.361-10.388-20.446-13.805-.753-.838-.652-2.156.026-3.057a2.56 2.56 0 0 1 2.925-.88c6.528 2.239 14.477 4.444 22.86 5.851 11.021 1.844 24.729 4.159 38.618 4.847M192.777 85.086c10.789-.846 20.202 8.363 21.825 20.609 2.164 16.314-3.822 33.166-23.511 33.554-16.819.335-21.915-16.625-20.8-26.9 1.107-10.275 9.577-26.25 22.486-27.263"/></svg>

<svg class="icon" viewBox="0 0 401 401" xmlns="http://www.w3.org/2000/svg" aria-hidden="true" role="img"><path id="outline" d="M261.684,245.149C295.545,246.811 330.909,231.614 341.887,201.373C352.865,171.132 348.608,141.225 309.226,123.287C269.845,105.343 251.657,84.015 219.841,71.147C199.054,62.739 175.926,67.729 152.177,80.854C88.214,116.205 30.903,227.892 57.319,331.372C57.698,332.791 57.062,334.275 55.775,334.987C54.496,335.691 52.89,335.426 51.898,334.347C16.282,295.06 -3.759,241.788 0.593,184.791C8.998,74.728 105.178,-7.806 215.241,0.599C325.296,9.003 407.83,105.182 399.425,215.245C395.896,261.466 376.89,302.829 347.866,334.644C325.671,357.444 297.393,367.579 273.796,367.16C256.689,366.857 239.957,360.048 228.387,350.094C211.871,335.866 205.196,319.609 202.913,301.459C202.341,296.952 202.677,284.662 205.025,276.15C206.77,269.807 211.21,257.551 217.701,252.193C210.106,248.927 200.34,241.805 197.255,238.388C196.502,237.55 196.603,236.232 197.281,235.331C197.952,234.422 199.147,234.069 200.206,234.451C206.734,236.69 214.683,238.895 223.066,240.302C234.087,242.146 247.795,244.461 261.684,245.149ZM192.777,85.086C203.566,84.24 212.979,93.449 214.602,105.695C216.766,122.009 210.78,138.861 191.091,139.249C174.272,139.584 169.176,122.624 170.291,112.349C171.398,102.074 179.868,86.099 192.777,85.086Z" fill="currentColor" /></svg>
